X: 1
T: How can we abstain from Whisky
T: 'Cia mar is urra' sinn fuireach o'n Dram
C: James Murto MacRae
R: air, jig
S: printed copy of unknown origin in Concord Slow Scottish Session collection
N: Presented by Gregor Borland, Boston Harbor Scottish Fiddle School, August 2008
Z: 2015 John Chambers <jc:trillian.mit.edu>
M: 6/8
L: 1/8
K: G
(3(D/E/F/) |\
"G"(G2G) GDB, | "G"d2e dB(G/F/) |\
"Em"G2A "C"(TB>AB) | "D7"(E2TF) {EF}y{A2}"G"G2 :|\
D |\
"G"GBd ({B}g2g) | "D"f>ed "C"edB |
"G"GBd "Em"(g2g) | "Am"fed "D7"{^d}He2 (3(e/f/g/) |\
"G"g>gg "G7"gdB | "C"{c}e>ee "G"dBG |\
"Em"(G2A) "C"TB>AB | "D7"E2(TF {EF}"G"[G2B,2]) |]
